X:1
T:Freehold, CMD
T:Freehold, CMD
T:Edwin Othello Excell, 1896
T:Public Domain Courtesy of the Cyber Hymnal™
C:Edwin Othello Excell, 1896
Z:Public Domain
Z:Courtesy of the Cyber Hymnal™
%%score ( 1 2 ) ( 3 4 )
L:1/8
Q:1/4=108
M:4/4
K:Eb
V:1 treble 
V:2 treble 
V:3 bass 
V:4 bass 
V:1
 E>[EF] | [EG]2 [EG]3 z [EF]>E | [EB]2 [EB]3 z E>[EF] | [EG]4 [EG]3 [EG] | [DF]6 [B,E]>[B,E] | %5
 [EG]2 [EG]3 z [EF]>E | [EB]2 [EB]3 z E>[EF] | [EG]4 [B,E]3 [B,F] | [B,E]6 [EG]>[GB] | %9
 [Ge]2 [Ge]3 z [EG]>[EF] | E2 E3 z [EG]>[EB] | [Ee]4 [EF]3 [EG] | [DF]6 E>[EF] | %13
 [EG]2 [EG]3 z [EF]>E | [EB]2 [EB]3 z [B,E]>[B,F] | [EG]4 [B,E]3 [B,F] | [B,E]6 |] %17
V:2
 E3/2 x/ | x15/2 E/ | x6 E3/2 x/ | x8 | x8 | x15/2 E/ | x6 E3/2 x/ | x8 | x8 | x8 | E2 E3 x3 | x8 | %12
 x6 E3/2 x/ | x15/2 E/ | x8 | x8 | x6 |] %17
V:3
 [E,G,]>[E,A,] | [E,B,]2 [E,B,]3 z [E,B,]>[E,G,] | [E,G,]2 [E,G,]3 z [E,G,]>[E,A,] | %3
 [E,B,]4 [F,=A,]3 [F,A,] | (B,2 A,4) [E,G,]>[E,A,] | [E,B,]2 [E,B,]3 z [E,A,]>[E,G,] | %6
 [E,G,]2 [E,G,]3 z [E,G,]>[E,A,] | [B,,B,]4 [B,,G,]3 [B,,A,] | [E,G,]6 [E,B,]>[E,B,] | %9
 [E,B,]2 [E,B,]3 z [E,B,]>[E,A,] | [E,G,]2 [E,G,]3 z [E,B,]>[E,B,] | [E,G,]4 [F,=A,]3 [F,A,] | %12
 (B,2 A,4) [E,G,]>[E,A,] | [E,B,]2 [E,B,]3 z [E,A,]>[E,G,] | [E,G,]2 [E,G,]3 z [G,,E,]>[A,,E,] | %15
 (E,2 B,2) [B,,G,]3 [B,,A,] | [E,G,]6 |] %17
V:4
 x2 | x8 | x8 | x8 | B,,6 x2 | x8 | x8 | x8 | x8 | x8 | x8 | x8 | B,,6 x2 | x8 | x8 | B,,4 x4 | %16
 x6 |] %17

